src/pos-icons/chart-donut-variant.svg

<svg height="24" viewBox="0 0 24 24" width="24" xmlns="http://www.w3.org/2000/svg"><path d="m13 2.05c5.05.5 9 4.77 9 9.95 0 1.45-.32 2.83-.88 4.07l-2.62-1.53c.32-.79.5-1.64.5-2.54 0-3.53-2.61-6.43-6-6.92zm-1 16.95c2.21 0 4.17-1 5.45-2.62l2.6 1.53c-1.82 2.48-4.75 4.09-8.05 4.09-5.53 0-10-4.5-10-10 0-5.19 3.94-9.45 9-9.95v3.03c-3.39.49-6 3.39-6 6.92a7 7 0 0 0 7 7m0-13a6 6 0 0 1 6 6c0 2.97-2.16 5.44-5 5.92v-3.09c1.17-.41 2-1.52 2-2.83a3 3 0 0 0 -3-3l-.55.05-1.54-2.67c.65-.25 1.35-.38 2.09-.38m-6 6c0-1.86.85-3.5 2.18-4.62l1.54 2.67c-.45.52-.72 1.21-.72 1.95 0 1.31.83 2.42 2 2.83v3.09c-2.84-.48-5-2.95-5-5.92z"/></svg>

<?xml version="1.0" encoding="UTF-8"?><!DOCTYPE svg PUBLIC "-//W3C//DTD SVG 1.1//EN" "http://www.w3.org/Graphics/SVG/1.1/DTD/svg11.dtd"><svg xmlns="http://www.w3.org/2000/svg" xmlns:xlink="http://www.w3.org/1999/xlink" version="1.1" id="mdi-chart-donut-variant" width="24" height="24" viewBox="0 0 24 24"><path d="M13,2.05C18.05,2.55 22,6.82 22,12C22,13.45 21.68,14.83 21.12,16.07L18.5,14.54C18.82,13.75 19,12.9 19,12C19,8.47 16.39,5.57 13,5.08V2.05M12,19C14.21,19 16.17,18 17.45,16.38L20.05,17.91C18.23,20.39 15.3,22 12,22C6.47,22 2,17.5 2,12C2,6.81 5.94,2.55 11,2.05V5.08C7.61,5.57 5,8.47 5,12A7,7 0 0,0 12,19M12,6A6,6 0 0,1 18,12C18,14.97 15.84,17.44 13,17.92V14.83C14.17,14.42 15,13.31 15,12A3,3 0 0,0 12,9L11.45,9.05L9.91,6.38C10.56,6.13 11.26,6 12,6M6,12C6,10.14 6.85,8.5 8.18,7.38L9.72,10.05C9.27,10.57 9,11.26 9,12C9,13.31 9.83,14.42 11,14.83V17.92C8.16,17.44 6,14.97 6,12Z" /></svg>
